X:827
T:Atardecer (XA 19)
C:Sergio Domingo
S:Msica Tradicional Asturiana, (C) Tello & Tito. Asturies, 2001.
S:http://pagina.de/MusTradAst <telloytito@asturies.org>
A:Asturies
Z:Mtodu de Xuacu Amieva 19
M:3/8
L:1/8
Q:3/8=52
K:C
|C3|C2 D|E3-|ECC|F3|E2 E|D3|D3|
|F3|E2 D|C3-|C2 C|E2 E|D2 D|C3|C3|
|c3|c2 c|B3|B3|A3|G2 F|E3-|E3|
|D3|E2 E|G3|E3|F3|F2 F|E3-|E3|
|A3|A2 A|G3|G3|F3|E2 D|C3-|C3|
|B,3|C2 D|E3|C3|D3|D2 D|C3-|C3|
|E3|G2 C|E3-|E3|_E3|_E2 E|D3|D3|
|G3|G2 G|A3-|{BAG}A3|A3|G2 F|E3-|E3|
|c3|A2 A|G3-|G3|F3|D2 D|C3-|C z2|
|: .E E/D/E/F/|.G G/G/E/A/|~G F/F/F/G/|~F E2|
|.E E/D/E/F/|GGE/A/|~G F/G/-G/F/|E3 :|
|c3|~G2 F|~E2 D|C3|E3|E2 F|G3|G3|
|c3|~G2 F|~E2 D|C3|G3|^F2 =F|E3|E3|
|C3|C2 D|E3|E3|F3|E2 E|D3-|D3|
|C3|C2 C|E3|E3|F3|E2 ~D|C3-|C3|
|C2 C|C3-|C3|[C3E3]|[C2E2][CE]|[C3E3]-|
[C3E3]|[C3E3G3]|[C2E2G2][CEG]|[C3E3G3]-|[C3E3G3]|
